X:3459
T:Ladies' Pleasure
O:england
M:6/8
C:
S:Bacon (MDT)
N:transposed from F to G
A:Bledington
R:Jig
%:
%:
%P:A.AB.(CB)$^2$
P:A.AB.(CB)2
L:1/8
K:G
Q:C3=100
P:A
d|g2 g B2 c|d2 B G2 D|G>GG ABc|B2 A A2   \
d|g2 g B2 c|d2 B G2 D|G>GG ABc|B2 A G3||\
P:B
A>AA cBc|A>AA cBc|A>Bc def|gfe  d2 d|\
g2 g B2 c|d2 B G2 D|G>GG ABc|B2 A G3||\
P:C
M:3/8
L:1/8
d3|\
M:6/8
g3 g3|B3 c3|d3 B3|\
M:3/8
L:1/8
G2 D|\
M:6/8
G>GG ABc|B2 A A3|\
M:3/8
L:1/8
d3|\
M:6/8
g3 g3|B3 c3|d3 B3|\
M:3/8
L:1/8
G2 D|\
M:6/8
G>GG ABc|B2 A G3||


